src/img/wave-arrow.svg

<svg width="118" height="31" viewBox="0 0 118 31" fill="none" xmlns="http://www.w3.org/2000/svg">
<path d="M2.12166 17.4472C1.68906 17.1038 1.06004 17.1762 0.716711 17.6088C0.373379 18.0414 0.445744 18.6704 0.878342 19.0138L2.12166 17.4472ZM43 8.23047L43.8823 7.75985L43 8.23047ZM117.5 0.730469L105.967 0.167115L111.245 10.4369L117.5 0.730469ZM0.878342 19.0138C16.7625 31.6202 29.5064 33.0098 37.4222 28.9355C45.3439 24.8581 48.0032 15.4859 43.8823 7.75985L42.1177 8.70108C45.7355 15.4841 43.3948 23.6119 36.5069 27.1572C29.6129 30.7056 17.7375 29.8407 2.12166 17.4472L0.878342 19.0138ZM43.8823 7.75985C42.9446 6.00175 41.5811 5.01081 40.0098 5.33115C38.5989 5.61877 37.5318 6.89606 36.9032 8.327C35.612 11.2661 35.663 15.9252 39.0616 19.4519C42.4597 22.9782 48.9698 25.1356 60.1103 23.6671C71.2714 22.1958 87.2768 17.0664 109.951 5.73527L109.056 3.94623C86.4743 15.2317 70.6962 20.2543 59.8489 21.6842C48.9812 23.1168 43.2583 20.9246 40.5017 18.0641C37.7457 15.2042 37.7204 11.4394 38.7343 9.13142C39.2582 7.93881 39.939 7.38672 40.4093 7.29084C40.7191 7.22769 41.3699 7.29917 42.1177 8.70108L43.8823 7.75985Z" fill="#CCD7FF"/>
</svg>

<svg xmlns="http://www.w3.org/2000/svg" width="118" height="31" fill="none" xmlns:v="https://vecta.io/nano"><path d="M2.122 17.447a1 1 0 0 0-1.243 1.567l1.243-1.567zM43 8.23l.882-.471L43 8.23zm74.5-7.5L105.967.167l5.278 10.27L117.5.73zM.878 19.014C16.763 31.62 29.506 33.01 37.422 28.936c7.922-4.077 10.581-13.45 6.46-21.176l-1.765.941c3.618 6.783 1.277 14.911-5.611 18.456-6.894 3.548-18.769 2.683-34.385-9.71L.878 19.014zM43.882 7.76c-.938-1.758-2.301-2.749-3.873-2.429-1.411.288-2.478 1.565-3.107 2.996-1.291 2.939-1.24 7.598 2.158 11.125s9.908 5.684 21.049 4.215c11.161-1.471 27.166-6.601 49.841-17.932l-.895-1.789c-22.582 11.285-38.36 16.308-49.207 17.738-10.868 1.433-16.591-.76-19.347-3.62s-2.781-6.625-1.767-8.933c.524-1.193 1.205-1.745 1.675-1.841.31-.063.961.008 1.708 1.41l1.765-.941z" fill="#ccd7ff"/></svg>
